X:1
T:Freedom of Ireland (the)
R:polka 32
C:Rod Stradling
Z:P Headford
M:4/4
L:1/8
Q:2/4=90
K:G
|:.G2E2D2ED|GG.E2D3z/B/-|B2.d2A2BA|G2E2D2ED|
GG.E2D2ED|.G2E2D3z/B/-|B2.d2A2BA|E8:|]
B2.d2d2cB|c2.e2e4|.d2B2A2BA|.G2E2D4|
B2.d2d2cB|c2.e2e3f|.g2f2.e2d2|e4e4|
{f}.g2f2e2d2|efgeB4|.B2B2A2BA|G2.E2D2ED|
.G2E2D2ED|.G2E2D3z|B2.d2A2BA|E8|]
